X: 11998
T: Eoin's
R: polka
M: 2/4
K: Cdorian
|fB Bc|d2 cB|dG GF|GF ED|
fB Bc|d2 cB|GF G/A/B|cB B2:|
fg/a/ bc'|ba gf|fd dc/d/|fd cB|
fg/a/ bc'|ba gf|ed BG|cB B2:|

